img/gift/list.svg

<svg width="24" height="24" viewBox="0 0 24 24" fill="none" xmlns="http://www.w3.org/2000/svg">
<path d="M23.7599 3.71906L10.0799 17.5191L4.91992 12.3591L6.71992 10.6791L10.0799 14.0391L22.0799 2.03906L23.7599 3.71906Z" fill="#E97522"/>
<path d="M23.04 7.92L21.36 9.6C21.6 10.32 21.72 11.16 21.72 12C21.72 17.52 17.28 21.84 11.88 21.84C6.36 21.84 2.04 17.4 2.04 12C2.04 6.48 6.48 2.16 11.88 2.16C13.8 2.16 15.72 2.76 17.28 3.72L18.84 2.16C16.92 0.840001 14.52 0 12 0C5.4 0 0 5.4 0 12C0 18.6 5.4 24 12 24C18.6 24 24 18.6 24 12C23.76 10.56 23.52 9.12 23.04 7.92Z" fill="#E97522"/>
</svg>

<svg width="24" height="24" fill="none" xmlns="http://www.w3.org/2000/svg"><path d="M23.76 3.72l-13.68 13.8-5.16-5.16 1.8-1.68 3.36 3.36 12-12 1.68 1.68z" fill="#E97522"/><path d="M23.04 7.92L21.36 9.6c.24.72.36 1.56.36 2.4 0 5.52-4.44 9.84-9.84 9.84-5.52 0-9.84-4.44-9.84-9.84 0-5.52 4.44-9.84 9.84-9.84 1.92 0 3.84.6 5.4 1.56l1.56-1.56C16.92.84 14.52 0 12 0 5.4 0 0 5.4 0 12s5.4 12 12 12 12-5.4 12-12c-.24-1.44-.48-2.88-.96-4.08z" fill="#E97522"/></svg>
